!!!COM: Scriabin, Alexander
!!!OTL@@FR: Prélude en fa dièse majeur
!!!OTL@@EN: Prelude in F# Major
!!!OPR@@FR: 4 Préludes
!!!OPR@@EN: 4 Preludes
!!!OPS: 48
!!!ONM: 1
!!!ODT: 1905
!!!AGN: Prelude
**kern	**kern	**dynam
*staff2	*staff1	*staff1/2
*Ipiano	*Ipiano	*
*clefF4	*clefF4	*
*k[f#c#g#d#a#e#]	*k[f#c#g#d#a#e#]	*
*F#:	*F#:	*
*M3/4	*M3/4	*
*	*^	*
*	*	*^	*
12AAAnL 12AAn	6E-X\	12FnL	6dn	.
12FFFnJ 12FFn	.	12AnJ	.	.
12r	12r	12r	12r	.
*	*	*v	*v	*
=1	=1	=1	=1
2BBB 2BB	4D#X 4An	12e#XL	.
.	.	12d#X	.
.	.	24r	.
.	.	24e#Jk	.
.	4A 4d#	4f#	.
*	*	*^	*
12CCnL 12Cn	6G-X\	12A-XL	6fn	.
12AAA-XJ 12AA-X	.	12cnJ	.	.
12r	12r	12r	12r	.
*	*	*v	*v	*
*	*clefG2	*clefG2	*
=2	=2	=2	=2
2DDn 2Dn	4F#X 4B#X	12g#XL	.
.	.	12f#X	.
.	.	24r	.
.	.	24g#Jk	.
.	4B# 4f#	4an	.
12DDL 12D	4B# 4f#	4g#	.
12GGG#J 12GG#	.	.	.
12r	.	.	.
!!LO:LB:g=original
=3	=3	=3	=3
4CC# 4C#	4Bn 4e#	12bnL	.
.	.	12a#X	.
.	.	24r	.
.	.	24bJk	.
4GGGn 4GGn	4e#	4b 4ddn	.
4CCC# 4CC#	4e#	4b	.
=4	=4	=4	=4
2GGGn	2e# 2b	4ddn	.
.	.	4cc#	.
*	*	*^	*
*	*clefF4	*clefF4	*clefF4	*
12AAA#L 12AA#	6En\	12F#L	6d#X	.
12FFF#J 12FF#	.	12A#J	.	.
12r	12r	12r	12r	.
*	*	*v	*v	*
=5	=5	=5	=5
2CCn 2Cn	4En 4B-X	12f#L	.
.	.	12en	.
.	.	24r	.
.	.	24f#Jk	.
*	*clefG2	*clefG2	*
.	4B-X 4en	4an	.
[8qC	.	.	.
*	*v	*v	*
4C] 4B-X 4en	4a 4ddn 4een 4aan	.
=6	=6	=6
[8qFF#	.	.
4FF#] 4En 4A#X	4g# 4ddn 4een 4gg#	.
[8qCCn [8qCn	.	.
4CC] 4C] 4E 4B-X 4en	4an 4dd 4ee 4aan	.
*	*^	*
*	*	*^	*
12EEnL 12E	6B-X\	12cnL	6a	.
12CCJ 12C	.	12enJ	.	.
12r	12r	12r	12r	.
*	*	*v	*v	*
!!LO:LB:g=original
=7	=7	=7	=7
2FF# 2F#	4A#X 4en	12b#XL	.
.	.	12a#X	.
.	.	24r	.
.	.	24b#Jk	.
.	4e 4a#	4dd#	.
*	*v	*v	*
[8qF#	.	.
4F#] 4en 4a#	4dd# 4gg# 4aa# 4ddd#	.
=8	=8	=8
[8qCn	.	.
4C] 4B-X 4en	4ddn 4aa-X 4bb-X 4dddn	.
[8qFF# [8qF#	.	.
4FF#] 4F#] 4A# 4e 4a#	4dd#X 4gg# 4aa#X 4ddd#X	.
*	*^	*
*	*	*^	*
12AA#L 12A#	6en\	12f#L	6dd#	.
12FF#J 12F#	.	12a#J	.	.
12r	12r	12r	12r	.
*	*	*v	*v	*
=9	=9	=9	=9
*^	*	*	*
4r	2.F# 2.en	2dd#	[4g# [4gg#	.
12FF#L 12F#	.	.	12g#L] 12gg#]	.
12BBBJ 12BB	.	.	12.f##X 12.ff##X	.
12r	.	.	.	.
.	.	.	24g#Jk 24gg#	.
4r	.	[4cc##X	[4a# [4aa#	.
=10	=10	=10	=10	=10
4r	2.F#X 2.en	4cc##]	8a#L] 8aa#]	.
.	.	.	8c##XJ 8cc##X	.
12FF#L 12F#	.	6cc##	6a# 6aa#	.
12BBBJ 12BB	.	.	.	.
12r	.	6ryy	6f##X 6ff##X/	.
4r	.	.	.	.
.	.	6ryy	6g# 6gg#/	.
!!LO:LB:g=original
=11	=11	=11	=11	=11
4r	2.F#X 2.en	4gg#	4cc##X 4ccc##X	.
12FF#L 12F#	.	2a# 2cc##	4g# 4gg#	.
12BBBJ 12BB	.	.	.	.
12r	.	.	.	.
4r	.	.	4gn 4ggn	.
*	*	*v	*v	*
*v	*v	*	*
=12	=12	=12
8.BBL 8.F# 8.d#	8.f#L 8.b 8.dd# 8.ff#	.
16FF#Jk 16F#	[16d#Jk [16f# [16b [16dd#	.
4AAA# 4AA#	4d#] 4f#] 4b] 4dd#]	.
*	*^	*
*	*	*^	*
12AAAnL 12AAn	6e-X\	12fnL	6ddn	.
12FFFnJ 12FFn	.	12anJ	.	.
12r	12r	12r	12r	.
*	*	*v	*v	*
=13	=13	=13	=13
4BB 4B	4d#X 4an	12ee#XL	.
.	.	12dd#X	.
.	.	24r	.
.	.	24ee#Jk	.
[8qBBB [8qBB	.	.	.
4BBB] 4BB] 4D# 4An 4d#	4a 4dd#	4ff#	.
*	*	*^	*
12CCnL 12Cn	6g-X\	12a-XL	6ffn	.
12AAA-XJ 12AA-X	.	12ccnJ	.	.
12r	12r	12r	12r	.
*	*	*v	*v	*
=14	=14	=14	=14
4Dn 4dn	4f#X 4b#X	12gg#XL	.
.	.	12ff#X	.
.	.	24r	.
.	.	24gg#Jk	.
[8qDDn [8qD	.	.	.
4DD] 4D] 4F# 4B#X 4f#	4b# 4ff#	4aan	.
12DDL 12D	4f# 4b# 4ff#	4gg#	.
12GGG#J 12GG#	.	.	.
12r	.	.	.
!!LO:LB:g=original
=15	=15	=15	=15
4C# 4c#	4bn 4ee#	12bbnL	.
.	.	12aa#X	.
.	.	24r	.
.	.	24bbJk	.
[8qGGn [8qGn	.	.	.
4GG] 4E# 4G] 4B 4e#	4b 4ee# 4bb	4dddn	.
[8qCC# [8qC#	.	.	.
4CC#] 4C#] 4E# 4B 4e#	4b 4ee#	4bb	.
=16	=16	=16	=16
[8qGGGn [8qGGn	.	.	.
4GGG] 4GG] 4E# 4B 4e#\	4b 4ee# 4bb	4dddn	.
*	*v	*v	*
4r	4r	.
4r	4r	.
=17	=17	=17
2.r	2.r	.
=18	=18	=18
[8qCC# [8qC#	.	.
4CC#] 4C#] 4E# 4B 4e#	4b 4ee# 4bb 4ccc#	.
4r	4r	.
4r	4r	.
=19	=19	=19
2.r	2.r	.
=20	=20	=20
16qCC#LL 16qC#	.	.
[16qFFF#JJ [16qFF#	.	.
4FFF#] 4FF#] 4C# 4A# 4f#	4a# 4cc# 4ff# 4aa# 4ccc# 4aaa#	.
4r	4r	.
4r	4r	.
==	==	==
*-	*-	*-
!!!system-decoration: {(*)}
!!!filter: flipper -a
!!!ENC: Bryan Jacob Bell
!!!END: November 2021 to April 2022
!!!PED: Günter Philipp
!!!PTL: Ausgewählte Klavierwerke (Edition Peters)
